X: 32052
T: Peggy's Wedding
R: jig
M: 6/8
K: Cmajor
|:cdc czc|ceg gec|cdc czc|Bcd dBG|
cdc czc|ceg gec|faf egc|Bcd dBG:|
|:cdc gzc|ezc gzc|cdc gzc|Bcd dBG|
cdc gec|edc gec|faf egc|Bcd dBG:|

